!!!COM: Corelli, Arcangelo
!!!OTL: Sonate a tre [in a]
!!!XEN: Trio Sonata Opus 1, No. 4
!!!OPS: Opus 1
!!!ONM: No. 4
!!!OMV: Movement 2.
!!!YEC: Copyright 1994, Center for Computer Assisted Research in the Humanities
!!!YEM: Rights to all derivative electronic formats reserved.
!!!YEM: Refer to licensing agreement for further details.
!! For the following instrumentation: Violino I & II, Violone/Archlute,
!!    and Organo.
!! Adagio.
**kern	**kern	**kern	**kern
*ICklav	*ICstr	*ICstr	*ICstr
*Iorgan	*Icello	*Ivioln	*Ivioln
*	*Iarchl	*	*
!Organo	!Violone	!Violin 2	!Violin 1
!	! or	!	!
!	!Archlute	!	!
*clefF4	*clefF4	*clefG2	*clefG2
*k[]	*k[]	*k[]	*k[]
*a:	*a:	*a:	*a:
*M4/4	*M4/4	*M4/4	*M4/4
*MM48	*MM48	*MM48	*MM48
=1-	=1-	=1-	=1-
1AA/	1r	2r	(8ee\L
.	.	.	8dd\)
.	.	.	(8cc\
.	.	.	8b\J)
.	.	(8ee\L	(8cc/L
.	.	8dd\)	8b/)
.	.	(8cc\	(8a/
.	.	8b\J)	8g#/J)
=2	=2	=2	=2
8A\L	8A\L	(8cc/L	2a/
8G\	8G\	8b/)	.
8F\	8F\	(8a/	.
8E\J	8E\J	8g#/J)	.
8F\L	8F\L	2a/	(8aa\L
8E\	8E\	.	8gg\)
8D\	8D\	.	(8ff\
8C#\J	8C#\J	.	8ee\J)
=3	=3	=3	=3
2D\	2D\	(8dd\L	2ff\
.	.	8cc\)	.
.	.	(8b\	.
.	.	8a\J)	.
2E\	2E\	2g#/	(8ee\L
.	.	.	8dd\)
.	.	.	(8cc\
.	.	.	8b\J)
=4	=4	=4	=4
2AA/	2AA/	(8a/L	2cc\
.	.	8g/)	.
.	.	(8f/	.
.	.	8e/J)	.
2D\	2D\	(8ff\L	(8dd\L
.	.	8ee\)	8cc\)
.	.	(8dd\	(8b\
.	.	8cc\J)	8a\J)
=5	=5	=5	=5
8e\L	8e\L	2b\	2g#/
8d\	8d\	.	.
8c\	8c\	.	.
8B\J	8B\J	.	.
8A\L	8A\L	(8cc/L	2ee\
8G\	8G\	8b/)	.
8F\	8F\	(8a/	.
8E\J	8E\J	8g#/J)	.
=6	=6	=6	=6
8D/L	8D/L	2a/	2ff\
8C/	8C/	.	.
8BB/	8BB/	.	.
8AA/J	8AA/J	.	.
2GG#/	2GG#/	2b\	(8ee\L
.	.	.	8dd\)
.	.	.	(8cc\
.	.	.	8b\J)
=7	=7	=7	=7
2AA/	2AA/	(8aa\L	4cc\
.	.	8gg\)	.
.	.	(8ff\	4cc#\
.	.	8ee\J)	.
4D\	4D\	4ff\	4dd\
4E\	4E\	[4ee\	4g#/
=8	=8	=8	=8
2F\	2F\	4ee\]	2a/
.	.	4dd\	.
8e\L	8e\L	2ee\	2g#/
8d\	8d\	.	.
8c\	8c\	.	.
8B\J	8B\J	.	.
=9	=9	=9	=9
8c\L	8c\L	(8ee\L	2r
8B\	8B\	8dd\)	.
8A\	8A\	(8cc\	.
8G#\J	8G#\J	8b\J)	.
4A\	4A\	2cc\	(8aa\L
.	.	.	8gg\)
4AA/	4AA/	.	(8ff\
.	.	.	8ee\J)
=10	=10	=10	=10
2D\	2D\	(8aa\L	(8ff\L
.	.	8gg\)	8ee\)
.	.	(8ff\	(8dd\
.	.	8ee\J)	8cc#\J)
[2D\	[2D\	(8ff\L	(8dd\L
.	.	8ee\)	8ccn\)
.	.	(8dd\	(8b\
.	.	8cc\J)	8a\J)
=11	=11	=11	=11
4D\]	4D\]	4b\	8g#/L
.	.	.	8e/J
8C/L	8C/L	4cc\	2a/
8D/J	8D/J	.	.
2E\	2E\	2b\	.
.	.	.	4g#/
=12	=12	=12	=12
1AA;/	1AA;/	1a;/	1a;/
==	==	==	==
*-	*-	*-	*-
!!!CDT: 1653/2/17/-1713/1/8
!!!OCY: Italia
!!!ODE: Queen Christina Alexandra of Sweden
!!!ODT: 1681//
!!!OPC: Roma; Rome
!!!AGN: trio sonata
!!!AST: baroque, chamber
!!!AMT: simple quadruple
!!!YOR1: J. Joachim & F. Chrysander (eds.) Les Oeuvre de Arcangelo Corelli
!!!YOR2: London: Augener & Co. 1871
!!!YOY: 1871
!!!AIN: archl cello organ violn
!!!EEV: 1.1
!!!RDT: 1993 August 19
!!!YER: 1994 December 14
!!!EMD: 1996 July 9
!!!YEN: United States of America
!!!EFL: 2/4
!!!ENC: Frances Bennion & Steven Rasmussen
!!!EED: W.B. Hewlett
!!!VTS: 1481236625
